X:1521
T:William White's Reel
R:reel
N:"collected from McFadden"
B:"O'Neill's Dance Music of Ireland, 1521"
T: seisd uilliam .bain.
Z:transcribed by John B. Walsh, walsh@math.ubc.ca 8/23/96
M:C|
L:1/8
K:C
G2 (EG) cGEF|GBAG ED D2|TGFEG cBcG|ABcd ec c2:|
((3cdc) ce g2 gg|AGGE GBdB|"~"c2 (ce) {a}g2 (gf)|eaag (ec) c2|
{d}cBce gfgG|AGGE GBdB|cdef geag|((3efg) df ec c2||


